X:1
T:Title
%%score { ( 1 4 5 ) | ( 2 3 ) }
L:1/8
Q:1/4=95
M:6/8
K:A
V:1 treble nm="Grand Piano"
V:4 treble 
V:5 treble 
V:2 bass 
V:3 bass 
V:1
 [CE]2 [CE] [CE][DF][CE] | [A,C]3 [CE]3 | [Ec]2 [EA] .[FB]2 [A,DF] | [A,CE]6 | %4
w: Asa~Hull * * * *||||
 [A,DF]2 [A,DF] [FA]G[A,DF] | [A,CE]3 [CEA]2 [EAc] | .[GB]6 | c6 | c2 c cBc | [ce]3- [ce][Bd][Ac] | %10
w: ||||||
 z3 z cd | c6 | F2 F [FA]G[A,DF] | [A,CE]3 [CEA]2 [Ec] | [DFB]3 .[B,EG]3 | [A,CA]6 | [Ac]2 c cBc | %17
w: |||||||
 [Ge]2- [B,G-e-] [B,Ge]3 | A2 A AGA | [^Ec]2- [G,E-c-] [G,Ec]3 | F2 F [FA]G[A,DF] | %21
w: ||||
 [A,CE]3 [CEA]2 [EAc] | [GB]3- [G-B]GB | c6 | c2 c cBc | [ce]2- [Ec-e-] [Ece][EBd][EAc] | %26
w: |||||
 [GB]3- [GB]cd | c6 | F2 F [FA]G[A,DF] | [A,CE]3 [CEA]2 [Ec] | [DFB]3 .[B,EG]3 | [A,CA]6 |] %32
w: ||||||
V:2
 [A,,A,]2 [A,,A,] [A,,A,]2 [A,,A,] | [A,,E,]3 [A,,A,]3 | [A,,A,]2 [C,A,] z AD, | A,,6 | %4
 D,2 D, z ED, | A,,3 A,,2 A,, | E,3 z[K:treble] AG | [A,EA]6 | [A,EA]2 [A,EA] [A,EA]2 [A,EA] | %9
 [A,E]3- [A,E][A,E][A,E] | [E,E]3 z[K:treble] AB | [A,EA]6 | [D,A,D]2 [D,A,D] z ED, | %13
 A,,3 A,,2 A,, | D,3 z2 D | A,,6 | z2 A A2 A | E,2 E, .E,3 | F2 F F2 F | C,2 C, .C,3 | %20
 [D,A,D]2 [D,A,D] z ED, | A,,3 A,,2 A,, | E,3 z[K:treble] AG | [A,EA]6 | A2 A A2 A | %25
 A,2 A, A,A,A, | E,3 z[K:treble] AB | [A,EA]6 | [D,A,D]2 [D,A,D] z ED, | A,,3 A,,2 A,, | D,3 z2 D | %31
 A,,6 |] %32
V:3
 x6 | x6 | z3 .[D,A,]3 | x6 | z3 .[D,A,]3 | x6 | z3 E,3[K:treble] | x6 | x6 | x6 | %10
 z3 E,3[K:treble] | x6 | z3 .[D,A,]3 | x6 | z3 E,3 | x6 | [A,E]3 [A,E]3 | x6 | [F,C]3 [F,C]3 | x6 | %20
 z3 .[D,A,]3 | x6 | z3 E,3[K:treble] | x6 | [A,E]3 [A,E]3 | x6 | z3 E,3[K:treble] | x6 | %28
 z3 .[D,A,]3 | x6 | z3 E,3 | x6 |] %32
V:4
 x6 | x6 | x6 | x6 | x6 | x6 | E3 z2 B | x6 | x6 | x6 | .[GB]6 | x6 | x6 | x6 | x6 | x6 | x6 | %17
 .E3 z3 | x6 | .C3 z3 | x6 | x6 | E3 E3 | x6 | x6 | .E3 z3 | E3 E3 | x6 | x6 | x6 | x6 | x6 |] %32
V:5
 x6 | x6 | x6 | x6 | x6 | x6 | z3 E3 | x6 | x6 | x6 | z3 E3 | x6 | x6 | x6 | x6 | x6 | x6 | x6 | %18
 x6 | x6 | x6 | x6 | x6 | x6 | x6 | x6 | x6 | x6 | x6 | x6 | x6 | x6 |] %32

